images/50438990.svg

<?xml version="1.0" encoding="UTF-8"?>
<svg xmlns="http://www.w3.org/2000/svg" xmlns:xlink="http://www.w3.org/1999/xlink" width="300pt" height="300pt" viewBox="0 0 300 300" version="1.1">
<defs>
<g>
<symbol overflow="visible" id="glyph0-0">
<path style="stroke:none;" d="M 0.546875 1.9375 L 0.546875 -7.75 L 6.046875 -7.75 L 6.046875 1.9375 Z M 1.171875 1.328125 L 5.4375 1.328125 L 5.4375 -7.140625 L 1.171875 -7.140625 Z M 1.171875 1.328125 "/>
</symbol>
<symbol overflow="visible" id="glyph0-1">
<path style="stroke:none;" d="M 4.328125 -7.28125 C 3.546875 -7.28125 2.921875 -6.984375 2.453125 -6.390625 C 1.992188 -5.804688 1.765625 -5.007812 1.765625 -4 C 1.765625 -2.988281 1.992188 -2.1875 2.453125 -1.59375 C 2.921875 -1.007812 3.546875 -0.71875 4.328125 -0.71875 C 5.117188 -0.71875 5.742188 -1.007812 6.203125 -1.59375 C 6.660156 -2.1875 6.890625 -2.988281 6.890625 -4 C 6.890625 -5.007812 6.660156 -5.804688 6.203125 -6.390625 C 5.742188 -6.984375 5.117188 -7.28125 4.328125 -7.28125 Z M 4.328125 -8.171875 C 5.453125 -8.171875 6.351562 -7.789062 7.03125 -7.03125 C 7.707031 -6.28125 8.046875 -5.269531 8.046875 -4 C 8.046875 -2.738281 7.707031 -1.726562 7.03125 -0.96875 C 6.351562 -0.21875 5.453125 0.15625 4.328125 0.15625 C 3.203125 0.15625 2.300781 -0.21875 1.625 -0.96875 C 0.957031 -1.71875 0.625 -2.726562 0.625 -4 C 0.625 -5.269531 0.957031 -6.28125 1.625 -7.03125 C 2.300781 -7.789062 3.203125 -8.171875 4.328125 -8.171875 Z M 4.328125 -8.171875 "/>
</symbol>
<symbol overflow="visible" id="glyph0-2">
<path style="stroke:none;" d="M 1.078125 -8.015625 L 2.171875 -8.015625 L 2.171875 -4.734375 L 6.109375 -4.734375 L 6.109375 -8.015625 L 7.1875 -8.015625 L 7.1875 0 L 6.109375 0 L 6.109375 -3.8125 L 2.171875 -3.8125 L 2.171875 0 L 1.078125 0 Z M 1.078125 -8.015625 "/>
</symbol>
<symbol overflow="visible" id="glyph0-3">
<path style="stroke:none;" d="M 1.078125 -8.015625 L 2.546875 -8.015625 L 6.09375 -1.3125 L 6.09375 -8.015625 L 7.15625 -8.015625 L 7.15625 0 L 5.6875 0 L 2.125 -6.703125 L 2.125 0 L 1.078125 0 Z M 1.078125 -8.015625 "/>
</symbol>
<symbol overflow="visible" id="glyph1-0">
<path style="stroke:none;" d="M 0.453125 1.59375 L 0.453125 -6.34375 L 4.953125 -6.34375 L 4.953125 1.59375 Z M 0.953125 1.09375 L 4.453125 1.09375 L 4.453125 -5.84375 L 0.953125 -5.84375 Z M 0.953125 1.09375 "/>
</symbol>
<symbol overflow="visible" id="glyph1-1">
<path style="stroke:none;" d="M 1.734375 -0.75 L 4.828125 -0.75 L 4.828125 0 L 0.65625 0 L 0.65625 -0.75 C 1 -1.09375 1.457031 -1.554688 2.03125 -2.140625 C 2.613281 -2.734375 2.984375 -3.113281 3.140625 -3.28125 C 3.421875 -3.601562 3.613281 -3.875 3.71875 -4.09375 C 3.832031 -4.320312 3.890625 -4.539062 3.890625 -4.75 C 3.890625 -5.101562 3.769531 -5.390625 3.53125 -5.609375 C 3.289062 -5.828125 2.972656 -5.9375 2.578125 -5.9375 C 2.296875 -5.9375 2 -5.882812 1.6875 -5.78125 C 1.382812 -5.6875 1.054688 -5.539062 0.703125 -5.34375 L 0.703125 -6.25 C 1.054688 -6.382812 1.390625 -6.488281 1.703125 -6.5625 C 2.015625 -6.644531 2.300781 -6.6875 2.5625 -6.6875 C 3.238281 -6.6875 3.78125 -6.515625 4.1875 -6.171875 C 4.59375 -5.828125 4.796875 -5.375 4.796875 -4.8125 C 4.796875 -4.539062 4.742188 -4.28125 4.640625 -4.03125 C 4.535156 -3.789062 4.351562 -3.507812 4.09375 -3.1875 C 4.019531 -3.101562 3.785156 -2.859375 3.390625 -2.453125 C 2.992188 -2.046875 2.441406 -1.476562 1.734375 -0.75 Z M 1.734375 -0.75 "/>
</symbol>
</g>
</defs>
<g id="surface12501">
<rect x="0" y="0" width="300" height="300" style="fill:rgb(100%,100%,100%);fill-opacity:1;stroke:none;"/>
<path style="fill:none;stroke-width:1.2;stroke-linecap:butt;stroke-linejoin:miter;stroke:rgb(100%,0%,0%);stroke-opacity:1;stroke-miterlimit:10;" d="M 72.234375 206.957031 L 67.875 194.804688 "/>
<path style="fill:none;stroke-width:1.2;stroke-linecap:butt;stroke-linejoin:miter;stroke:rgb(0%,0%,0%);stroke-opacity:1;stroke-miterlimit:10;" d="M 67.875 194.804688 L 63.515625 182.65625 "/>
<path style="fill:none;stroke-width:1.2;stroke-linecap:butt;stroke-linejoin:miter;stroke:rgb(100%,0%,0%);stroke-opacity:1;stroke-miterlimit:10;" d="M 66.519531 209.007812 L 62.15625 196.859375 "/>
<path style="fill:none;stroke-width:1.2;stroke-linecap:butt;stroke-linejoin:miter;stroke:rgb(0%,0%,0%);stroke-opacity:1;stroke-miterlimit:10;" d="M 62.15625 196.859375 L 57.796875 184.707031 "/>
<path style=" stroke:none;fill-rule:nonzero;fill:rgb(100%,100%,100%);fill-opacity:1;" d="M 65.378906 201.484375 L 74.378906 201.484375 L 74.378906 214.484375 L 65.378906 214.484375 Z M 65.378906 201.484375 "/>
<g style="fill:rgb(100%,0%,0%);fill-opacity:1;">
  <use xlink:href="#glyph0-1" x="65.378906" y="211.385742"/>
</g>
<path style="fill:none;stroke-width:1.2;stroke-linecap:butt;stroke-linejoin:miter;stroke:rgb(0%,0%,0%);stroke-opacity:1;stroke-miterlimit:10;" d="M 60.65625 183.679688 L 47.953125 181.382812 "/>
<path style="fill:none;stroke-width:1.2;stroke-linecap:butt;stroke-linejoin:miter;stroke:rgb(0%,0%,100%);stroke-opacity:1;stroke-miterlimit:10;" d="M 47.953125 181.382812 L 35.25 179.082031 "/>
<path style="fill:none;stroke-width:1.2;stroke-linecap:butt;stroke-linejoin:miter;stroke:rgb(0%,0%,0%);stroke-opacity:1;stroke-miterlimit:10;" d="M 60.65625 183.679688 L 77.339844 163.976562 "/>
<path style=" stroke:none;fill-rule:nonzero;fill:rgb(100%,100%,100%);fill-opacity:1;" d="M 13.25 170.582031 L 35.25 170.582031 L 35.25 187.582031 L 13.25 187.582031 Z M 13.25 170.582031 "/>
<g style="fill:rgb(0%,0%,100%);fill-opacity:1;">
  <use xlink:href="#glyph0-2" x="13.25" y="180.483398"/>
</g>
<g style="fill:rgb(0%,0%,100%);fill-opacity:1;">
  <use xlink:href="#glyph1-1" x="21.274414" y="185.366211"/>
</g>
<g style="fill:rgb(0%,0%,100%);fill-opacity:1;">
  <use xlink:href="#glyph0-3" x="26.930664" y="180.483398"/>
</g>
<path style="fill:none;stroke-width:1.2;stroke-linecap:butt;stroke-linejoin:miter;stroke:rgb(0%,0%,0%);stroke-opacity:1;stroke-miterlimit:10;" d="M 77.339844 163.976562 L 68.621094 139.675781 "/>
<path style="fill:none;stroke-width:1.2;stroke-linecap:butt;stroke-linejoin:miter;stroke:rgb(0%,0%,0%);stroke-opacity:1;stroke-miterlimit:10;" d="M 82.1875 159.496094 L 75.210938 140.054688 "/>
<path style="fill:none;stroke-width:1.2;stroke-linecap:butt;stroke-linejoin:miter;stroke:rgb(0%,0%,0%);stroke-opacity:1;stroke-miterlimit:10;" d="M 102.746094 168.578125 L 77.339844 163.976562 "/>
<path style="fill:none;stroke-width:1.2;stroke-linecap:butt;stroke-linejoin:miter;stroke:rgb(0%,0%,0%);stroke-opacity:1;stroke-miterlimit:10;" d="M 68.621094 139.675781 L 85.304688 119.972656 "/>
<path style="fill:none;stroke-width:1.2;stroke-linecap:butt;stroke-linejoin:miter;stroke:rgb(0%,0%,0%);stroke-opacity:1;stroke-miterlimit:10;" d="M 85.304688 119.972656 L 110.710938 124.570312 "/>
<path style="fill:none;stroke-width:1.2;stroke-linecap:butt;stroke-linejoin:miter;stroke:rgb(0%,0%,0%);stroke-opacity:1;stroke-miterlimit:10;" d="M 86.765625 126.410156 L 107.089844 130.089844 "/>
<path style="fill:none;stroke-width:1.2;stroke-linecap:butt;stroke-linejoin:miter;stroke:rgb(0%,0%,0%);stroke-opacity:1;stroke-miterlimit:10;" d="M 110.710938 124.570312 L 119.054688 114.71875 "/>
<path style="fill:none;stroke-width:1.2;stroke-linecap:butt;stroke-linejoin:miter;stroke:rgb(0%,0%,100%);stroke-opacity:1;stroke-miterlimit:10;" d="M 119.054688 114.71875 L 127.398438 104.867188 "/>
<path style="fill:none;stroke-width:1.2;stroke-linecap:butt;stroke-linejoin:miter;stroke:rgb(0%,0%,0%);stroke-opacity:1;stroke-miterlimit:10;" d="M 110.710938 124.570312 L 119.433594 148.871094 "/>
<path style="fill:none;stroke-width:1.2;stroke-linecap:butt;stroke-linejoin:miter;stroke:rgb(0%,0%,100%);stroke-opacity:1;stroke-miterlimit:10;" d="M 127.398438 104.867188 L 140.101562 107.167969 "/>
<path style="fill:none;stroke-width:1.2;stroke-linecap:butt;stroke-linejoin:miter;stroke:rgb(0%,0%,0%);stroke-opacity:1;stroke-miterlimit:10;" d="M 140.101562 107.167969 L 152.804688 109.464844 "/>
<path style=" stroke:none;fill-rule:nonzero;fill:rgb(100%,100%,100%);fill-opacity:1;" d="M 119.398438 98.367188 L 136.398438 98.367188 L 136.398438 111.367188 L 119.398438 111.367188 Z M 119.398438 98.367188 "/>
<g style="fill:rgb(0%,0%,100%);fill-opacity:1;">
  <use xlink:href="#glyph0-3" x="119.398438" y="108.268555"/>
  <use xlink:href="#glyph0-2" x="127.381836" y="108.268555"/>
</g>
<path style="fill:none;stroke-width:1.2;stroke-linecap:butt;stroke-linejoin:miter;stroke:rgb(0%,0%,0%);stroke-opacity:1;stroke-miterlimit:10;" d="M 152.804688 109.464844 L 157.164062 121.617188 "/>
<path style="fill:none;stroke-width:1.2;stroke-linecap:butt;stroke-linejoin:miter;stroke:rgb(0%,0%,100%);stroke-opacity:1;stroke-miterlimit:10;" d="M 157.164062 121.617188 L 161.523438 133.769531 "/>
<path style="fill:none;stroke-width:1.2;stroke-linecap:butt;stroke-linejoin:miter;stroke:rgb(0%,0%,0%);stroke-opacity:1;stroke-miterlimit:10;" d="M 159.394531 109.84375 L 162.882812 119.566406 "/>
<path style="fill:none;stroke-width:1.2;stroke-linecap:butt;stroke-linejoin:miter;stroke:rgb(0%,0%,100%);stroke-opacity:1;stroke-miterlimit:10;" d="M 162.882812 119.566406 L 166.371094 129.285156 "/>
<path style="fill:none;stroke-width:1.2;stroke-linecap:butt;stroke-linejoin:miter;stroke:rgb(0%,0%,100%);stroke-opacity:1;stroke-miterlimit:10;" d="M 169.488281 89.761719 L 161.144531 99.613281 "/>
<path style="fill:none;stroke-width:1.2;stroke-linecap:butt;stroke-linejoin:miter;stroke:rgb(0%,0%,0%);stroke-opacity:1;stroke-miterlimit:10;" d="M 161.144531 99.613281 L 152.804688 109.464844 "/>
<path style="fill:none;stroke-width:1.2;stroke-linecap:butt;stroke-linejoin:miter;stroke:rgb(0%,0%,100%);stroke-opacity:1;stroke-miterlimit:10;" d="M 161.523438 133.769531 L 174.226562 136.066406 "/>
<path style="fill:none;stroke-width:1.2;stroke-linecap:butt;stroke-linejoin:miter;stroke:rgb(0%,0%,0%);stroke-opacity:1;stroke-miterlimit:10;" d="M 174.226562 136.066406 L 186.929688 138.367188 "/>
<path style=" stroke:none;fill-rule:nonzero;fill:rgb(100%,100%,100%);fill-opacity:1;" d="M 157.523438 127.269531 L 165.523438 127.269531 L 165.523438 140.269531 L 157.523438 140.269531 Z M 157.523438 127.269531 "/>
<g style="fill:rgb(0%,0%,100%);fill-opacity:1;">
  <use xlink:href="#glyph0-3" x="157.523438" y="137.170898"/>
</g>
<path style="fill:none;stroke-width:1.2;stroke-linecap:butt;stroke-linejoin:miter;stroke:rgb(0%,0%,0%);stroke-opacity:1;stroke-miterlimit:10;" d="M 186.929688 138.367188 L 203.617188 118.664062 "/>
<path style="fill:none;stroke-width:1.2;stroke-linecap:butt;stroke-linejoin:miter;stroke:rgb(0%,0%,0%);stroke-opacity:1;stroke-miterlimit:10;" d="M 183.964844 132.46875 L 197.3125 116.707031 "/>
<path style="fill:none;stroke-width:1.2;stroke-linecap:butt;stroke-linejoin:miter;stroke:rgb(0%,0%,0%);stroke-opacity:1;stroke-miterlimit:10;" d="M 186.929688 138.367188 L 195.652344 162.667969 "/>
<path style="fill:none;stroke-width:1.2;stroke-linecap:butt;stroke-linejoin:miter;stroke:rgb(0%,0%,0%);stroke-opacity:1;stroke-miterlimit:10;" d="M 203.617188 118.664062 L 194.894531 94.359375 "/>
<path style="fill:none;stroke-width:1.2;stroke-linecap:butt;stroke-linejoin:miter;stroke:rgb(0%,0%,0%);stroke-opacity:1;stroke-miterlimit:10;" d="M 194.894531 94.359375 L 182.191406 92.0625 "/>
<path style="fill:none;stroke-width:1.2;stroke-linecap:butt;stroke-linejoin:miter;stroke:rgb(0%,0%,100%);stroke-opacity:1;stroke-miterlimit:10;" d="M 182.191406 92.0625 L 169.488281 89.761719 "/>
<path style="fill:none;stroke-width:1.2;stroke-linecap:butt;stroke-linejoin:miter;stroke:rgb(0%,0%,0%);stroke-opacity:1;stroke-miterlimit:10;" d="M 191.273438 99.878906 L 181.109375 98.039062 "/>
<path style="fill:none;stroke-width:1.2;stroke-linecap:butt;stroke-linejoin:miter;stroke:rgb(0%,0%,100%);stroke-opacity:1;stroke-miterlimit:10;" d="M 181.109375 98.039062 L 170.945312 96.199219 "/>
<path style=" stroke:none;fill-rule:nonzero;fill:rgb(100%,100%,100%);fill-opacity:1;" d="M 165.488281 83.261719 L 173.488281 83.261719 L 173.488281 96.261719 L 165.488281 96.261719 Z M 165.488281 83.261719 "/>
<g style="fill:rgb(0%,0%,100%);fill-opacity:1;">
  <use xlink:href="#glyph0-3" x="165.488281" y="93.163086"/>
</g>
<path style="fill:none;stroke-width:1.2;stroke-linecap:butt;stroke-linejoin:miter;stroke:rgb(0%,0%,0%);stroke-opacity:1;stroke-miterlimit:10;" d="M 195.652344 162.667969 L 208.042969 166.28125 "/>
<path style="fill:none;stroke-width:1.2;stroke-linecap:butt;stroke-linejoin:miter;stroke:rgb(0%,0%,100%);stroke-opacity:1;stroke-miterlimit:10;" d="M 208.042969 166.28125 L 220.4375 169.894531 "/>
<path style="fill:none;stroke-width:1.2;stroke-linecap:butt;stroke-linejoin:miter;stroke:rgb(0%,0%,0%);stroke-opacity:1;stroke-miterlimit:10;" d="M 181.117188 184.007812 L 195.652344 162.667969 "/>
<path style="fill:none;stroke-width:1.2;stroke-linecap:butt;stroke-linejoin:miter;stroke:rgb(0%,0%,0%);stroke-opacity:1;stroke-miterlimit:10;" d="M 187.589844 185.292969 L 199.21875 168.222656 "/>
<path style="fill:none;stroke-width:1.2;stroke-linecap:butt;stroke-linejoin:miter;stroke:rgb(0%,0%,100%);stroke-opacity:1;stroke-miterlimit:10;" d="M 220.4375 169.894531 L 230.644531 161.992188 "/>
<path style="fill:none;stroke-width:1.2;stroke-linecap:butt;stroke-linejoin:miter;stroke:rgb(0%,0%,0%);stroke-opacity:1;stroke-miterlimit:10;" d="M 230.644531 161.992188 L 240.855469 154.09375 "/>
<path style="fill:none;stroke-width:1.2;stroke-linecap:butt;stroke-linejoin:miter;stroke:rgb(0%,0%,100%);stroke-opacity:1;stroke-miterlimit:10;" d="M 220.4375 169.894531 L 220.832031 182.800781 "/>
<path style="fill:none;stroke-width:1.2;stroke-linecap:butt;stroke-linejoin:miter;stroke:rgb(0%,0%,0%);stroke-opacity:1;stroke-miterlimit:10;" d="M 220.832031 182.800781 L 221.222656 195.703125 "/>
<path style=" stroke:none;fill-rule:nonzero;fill:rgb(100%,100%,100%);fill-opacity:1;" d="M 216.4375 163.394531 L 224.4375 163.394531 L 224.4375 176.394531 L 216.4375 176.394531 Z M 216.4375 163.394531 "/>
<g style="fill:rgb(0%,0%,100%);fill-opacity:1;">
  <use xlink:href="#glyph0-3" x="216.4375" y="173.295898"/>
</g>
<path style="fill:none;stroke-width:1.2;stroke-linecap:butt;stroke-linejoin:miter;stroke:rgb(0%,0%,0%);stroke-opacity:1;stroke-miterlimit:10;" d="M 240.855469 154.09375 L 264.75 163.871094 "/>
<path style="fill:none;stroke-width:1.2;stroke-linecap:butt;stroke-linejoin:miter;stroke:rgb(0%,0%,0%);stroke-opacity:1;stroke-miterlimit:10;" d="M 240.855469 154.09375 L 237.378906 128.507812 "/>
<path style="fill:none;stroke-width:1.2;stroke-linecap:butt;stroke-linejoin:miter;stroke:rgb(0%,0%,0%);stroke-opacity:1;stroke-miterlimit:10;" d="M 221.222656 195.703125 L 209.070312 200.0625 "/>
<path style="fill:none;stroke-width:1.2;stroke-linecap:butt;stroke-linejoin:miter;stroke:rgb(0%,0%,100%);stroke-opacity:1;stroke-miterlimit:10;" d="M 209.070312 200.0625 L 196.921875 204.425781 "/>
<path style="fill:none;stroke-width:1.2;stroke-linecap:butt;stroke-linejoin:miter;stroke:rgb(0%,0%,0%);stroke-opacity:1;stroke-miterlimit:10;" d="M 216.742188 190.855469 L 207.019531 194.34375 "/>
<path style="fill:none;stroke-width:1.2;stroke-linecap:butt;stroke-linejoin:miter;stroke:rgb(0%,0%,100%);stroke-opacity:1;stroke-miterlimit:10;" d="M 207.019531 194.34375 L 197.300781 197.832031 "/>
<path style="fill:none;stroke-width:1.2;stroke-linecap:butt;stroke-linejoin:miter;stroke:rgb(0%,0%,0%);stroke-opacity:1;stroke-miterlimit:10;" d="M 221.222656 195.703125 L 242.5625 210.238281 "/>
<path style="fill:none;stroke-width:1.2;stroke-linecap:butt;stroke-linejoin:miter;stroke:rgb(0%,0%,100%);stroke-opacity:1;stroke-miterlimit:10;" d="M 196.921875 204.425781 L 189.019531 194.214844 "/>
<path style="fill:none;stroke-width:1.2;stroke-linecap:butt;stroke-linejoin:miter;stroke:rgb(0%,0%,0%);stroke-opacity:1;stroke-miterlimit:10;" d="M 189.019531 194.214844 L 181.117188 184.007812 "/>
<path style=" stroke:none;fill-rule:nonzero;fill:rgb(100%,100%,100%);fill-opacity:1;" d="M 192.921875 197.925781 L 200.921875 197.925781 L 200.921875 210.925781 L 192.921875 210.925781 Z M 192.921875 197.925781 "/>
<g style="fill:rgb(0%,0%,100%);fill-opacity:1;">
  <use xlink:href="#glyph0-3" x="192.921875" y="207.827148"/>
</g>
<path style="fill:none;stroke-width:1.2;stroke-linecap:butt;stroke-linejoin:miter;stroke:rgb(0%,0%,0%);stroke-opacity:1;stroke-miterlimit:10;" d="M 119.433594 148.871094 L 102.746094 168.578125 "/>
<path style="fill:none;stroke-width:1.2;stroke-linecap:butt;stroke-linejoin:miter;stroke:rgb(0%,0%,0%);stroke-opacity:1;stroke-miterlimit:10;" d="M 113.128906 146.917969 L 99.78125 162.679688 "/>
</g>
</svg>

<svg xmlns="http://www.w3.org/2000/svg" xmlns:xlink="http://www.w3.org/1999/xlink" width="300pt" height="300pt" viewBox="0 0 300 300"><defs><symbol overflow="visible"><path d="M.547 1.938V-7.75h5.5v9.688zm.625-.61h4.266v-8.47H1.171zm0 0"/></symbol><symbol overflow="visible" id="a"><path d="M4.328-7.28c-.78 0-1.406.296-1.875.89-.46.585-.687 1.382-.687 2.39 0 1.012.226 1.813.687 2.406.47.586 1.094.875 1.875.875.79 0 1.414-.288 1.875-.874.457-.593.688-1.394.688-2.406 0-1.008-.23-1.805-.687-2.39-.46-.594-1.086-.89-1.875-.89zm0-.892c1.125 0 2.024.383 2.703 1.14C7.708-6.28 8.048-5.27 8.048-4c0 1.262-.34 2.273-1.016 3.03C6.353-.22 5.454.157 4.33.157S2.3-.22 1.625-.97c-.668-.75-1-1.757-1-3.03 0-1.27.332-2.28 1-3.03.676-.76 1.578-1.142 2.703-1.142zm0 0"/></symbol><symbol overflow="visible" id="b"><path d="M1.078-8.016h1.094v3.282H6.11v-3.282h1.077V0H6.11v-3.813H2.17V0H1.078zm0 0"/></symbol><symbol overflow="visible" id="d"><path d="M1.078-8.016h1.47l3.546 6.704v-6.704h1.062V0H5.688L2.124-6.703V0H1.078zm0 0"/></symbol><symbol overflow="visible"><path d="M.453 1.594v-7.938h4.5v7.938zm.5-.5h3.5v-6.938h-3.5zm0 0"/></symbol><symbol overflow="visible" id="c"><path d="M1.734-.75h3.094V0H.656v-.75c.344-.344.8-.805 1.375-1.39.583-.594.954-.973 1.11-1.14.282-.322.473-.595.58-.814.112-.226.17-.445.17-.656 0-.352-.12-.64-.36-.86-.24-.218-.557-.327-.952-.327-.28 0-.578.054-.89.156-.305.093-.633.24-.985.436v-.906c.352-.133.688-.238 1-.313.313-.082.598-.125.86-.125.675 0 1.218.172 1.624.516.407.344.61.797.61 1.36 0 .273-.055.53-.156.78-.105.243-.288.524-.546.845-.074.085-.31.328-.703.734-.398.406-.95.976-1.656 1.703zm0 0"/></symbol></defs><g><path fill="#fff" d="M0 0h300v300H0z"/><path d="M72.234 206.957l-4.36-12.152" stroke-width="1.2" stroke="#f00" stroke-miterlimit="10" fill="none"/><path d="M67.875 194.805l-4.36-12.15" stroke-width="1.2" stroke="#000" stroke-miterlimit="10" fill="none"/><path d="M66.52 209.008l-4.364-12.15" stroke-width="1.2" stroke="#f00" stroke-miterlimit="10" fill="none"/><path d="M62.156 196.86l-4.36-12.153" stroke-width="1.2" stroke="#000" stroke-miterlimit="10" fill="none"/><path d="M65.38 201.484h9v13h-9zm0 0" fill="#fff"/><use xlink:href="#a" x="65.379" y="211.386" fill="#f00"/><path d="M60.656 183.68l-12.703-2.297" stroke-width="1.2" stroke="#000" stroke-miterlimit="10" fill="none"/><path d="M47.953 181.383l-12.703-2.3" stroke-width="1.2" stroke="#00f" stroke-miterlimit="10" fill="none"/><path d="M60.656 183.68l16.684-19.703" stroke-width="1.2" stroke="#000" stroke-miterlimit="10" fill="none"/><path d="M13.25 170.582h22v17h-22zm0 0" fill="#fff"/><use xlink:href="#b" x="13.25" y="180.483" fill="#00f"/><use xlink:href="#c" x="21.274" y="185.366" fill="#00f"/><use xlink:href="#d" x="26.931" y="180.483" fill="#00f"/><path d="M77.34 163.977l-8.72-24.3M82.188 159.496l-6.977-19.44M102.746 168.578l-25.406-4.6M68.62 139.676l16.685-19.703M85.305 119.973l25.406 4.597M86.766 126.41l20.324 3.68M110.71 124.57l8.345-9.85" stroke-width="1.2" stroke="#000" stroke-miterlimit="10" fill="none"/><path d="M119.055 114.72l8.343-9.853" stroke-width="1.2" stroke="#00f" stroke-miterlimit="10" fill="none"/><path d="M110.71 124.57l8.724 24.3" stroke-width="1.2" stroke="#000" stroke-miterlimit="10" fill="none"/><path d="M127.398 104.867l12.704 2.3" stroke-width="1.2" stroke="#00f" stroke-miterlimit="10" fill="none"/><path d="M140.102 107.168l12.703 2.297" stroke-width="1.2" stroke="#000" stroke-miterlimit="10" fill="none"/><path d="M119.398 98.367h17v13h-17zm0 0" fill="#fff"/><g fill="#00f"><use xlink:href="#d" x="119.398" y="108.269"/><use xlink:href="#b" x="127.382" y="108.269"/></g><path d="M152.805 109.465l4.36 12.152" stroke-width="1.2" stroke="#000" stroke-miterlimit="10" fill="none"/><path d="M157.164 121.617l4.36 12.153" stroke-width="1.2" stroke="#00f" stroke-miterlimit="10" fill="none"/><path d="M159.395 109.844l3.488 9.722" stroke-width="1.2" stroke="#000" stroke-miterlimit="10" fill="none"/><path d="M162.883 119.566l3.488 9.72M169.488 89.762l-8.343 9.85" stroke-width="1.2" stroke="#00f" stroke-miterlimit="10" fill="none"/><path d="M161.145 99.613l-8.34 9.852" stroke-width="1.2" stroke="#000" stroke-miterlimit="10" fill="none"/><path d="M161.523 133.77l12.704 2.296" stroke-width="1.2" stroke="#00f" stroke-miterlimit="10" fill="none"/><path d="M174.227 136.066l12.703 2.3" stroke-width="1.2" stroke="#000" stroke-miterlimit="10" fill="none"/><path d="M157.523 127.27h8v13h-8zm0 0" fill="#fff"/><use xlink:href="#d" x="157.523" y="137.171" fill="#00f"/><path d="M186.93 138.367l16.687-19.703M183.965 132.47l13.347-15.763M186.93 138.367l8.722 24.3M203.617 118.664l-8.722-24.305M194.895 94.36l-12.704-2.297" stroke-width="1.2" stroke="#000" stroke-miterlimit="10" fill="none"/><path d="M182.19 92.063l-12.702-2.3" stroke-width="1.2" stroke="#00f" stroke-miterlimit="10" fill="none"/><path d="M191.273 99.88l-10.164-1.84" stroke-width="1.2" stroke="#000" stroke-miterlimit="10" fill="none"/><path d="M181.11 98.04l-10.165-1.84" stroke-width="1.2" stroke="#00f" stroke-miterlimit="10" fill="none"/><path d="M165.488 83.262h8v13h-8zm0 0" fill="#fff"/><use xlink:href="#d" x="165.488" y="93.163" fill="#00f"/><path d="M195.652 162.668l12.39 3.613" stroke-width="1.2" stroke="#000" stroke-miterlimit="10" fill="none"/><path d="M208.043 166.28l12.394 3.615" stroke-width="1.2" stroke="#00f" stroke-miterlimit="10" fill="none"/><path d="M181.117 184.008l14.535-21.34M187.59 185.293l11.63-17.07" stroke-width="1.2" stroke="#000" stroke-miterlimit="10" fill="none"/><path d="M220.438 169.895l10.207-7.903" stroke-width="1.2" stroke="#00f" stroke-miterlimit="10" fill="none"/><path d="M230.645 161.992l10.21-7.898" stroke-width="1.2" stroke="#000" stroke-miterlimit="10" fill="none"/><path d="M220.438 169.895l.394 12.906" stroke-width="1.2" stroke="#00f" stroke-miterlimit="10" fill="none"/><path d="M220.832 182.8l.39 12.903" stroke-width="1.2" stroke="#000" stroke-miterlimit="10" fill="none"/><path d="M216.438 163.395h8v13h-8zm0 0" fill="#fff"/><use xlink:href="#d" x="216.438" y="173.296" fill="#00f"/><path d="M240.855 154.094l23.895 9.777M240.855 154.094l-3.476-25.586M221.223 195.703l-12.153 4.36" stroke-width="1.2" stroke="#000" stroke-miterlimit="10" fill="none"/><path d="M209.07 200.063l-12.148 4.363" stroke-width="1.2" stroke="#00f" stroke-miterlimit="10" fill="none"/><path d="M216.742 190.855l-9.722 3.49" stroke-width="1.2" stroke="#000" stroke-miterlimit="10" fill="none"/><path d="M207.02 194.344l-9.72 3.488" stroke-width="1.2" stroke="#00f" stroke-miterlimit="10" fill="none"/><path d="M221.223 195.703l21.34 14.535" stroke-width="1.2" stroke="#000" stroke-miterlimit="10" fill="none"/><path d="M196.922 204.426l-7.902-10.21" stroke-width="1.2" stroke="#00f" stroke-miterlimit="10" fill="none"/><path d="M189.02 194.215l-7.903-10.207" stroke-width="1.2" stroke="#000" stroke-miterlimit="10" fill="none"/><path d="M192.922 197.926h8v13h-8zm0 0" fill="#fff"/><use xlink:href="#d" x="192.922" y="207.827" fill="#00f"/><path d="M119.434 148.87l-16.688 19.708M113.13 146.918L99.78 162.68" stroke-width="1.2" stroke="#000" stroke-miterlimit="10" fill="none"/></g></svg>
